files/icons/profile.svg

<svg width="32" height="32" viewBox="0 0 32 32" fill="none" xmlns="http://www.w3.org/2000/svg">
<g clip-path="url(#clip0_279_99)">
<path d="M32 16.0001C32 7.18411 24.816 0.00012207 16 0.00012207C7.18406 0.00012207 6.10352e-05 7.18411 6.10352e-05 16.0001C6.10352e-05 20.6401 2.00006 24.8161 5.16806 27.7441C5.16806 27.7601 5.16806 27.7601 5.15206 27.7761C5.31206 27.9361 5.50406 28.0641 5.66406 28.2081C5.76006 28.2881 5.84006 28.3681 5.93606 28.4321C6.22406 28.6721 6.54406 28.8961 6.84806 29.1201C6.96006 29.2001 7.05606 29.2641 7.16806 29.3441C7.47206 29.5521 7.79206 29.7441 8.12805 29.9201C8.24006 29.9841 8.36806 30.0641 8.48005 30.1281C8.80005 30.3041 9.13605 30.4641 9.48805 30.6081C9.61605 30.6721 9.74405 30.7361 9.87205 30.7841C10.2241 30.9281 10.5761 31.0561 10.9281 31.1681C11.0561 31.2161 11.1841 31.2641 11.3121 31.2961C11.6961 31.4081 12.0801 31.5041 12.4641 31.6001C12.5761 31.6321 12.6881 31.6641 12.8161 31.6801C13.2641 31.7761 13.7121 31.8401 14.1761 31.8881C14.2401 31.8881 14.304 31.9041 14.368 31.9201C14.912 31.9681 15.456 32.0001 16 32.0001C16.544 32.0001 17.088 31.9681 17.616 31.9201C17.68 31.9201 17.744 31.9041 17.808 31.8881C18.272 31.8401 18.72 31.7761 19.168 31.6801C19.28 31.6641 19.392 31.6161 19.52 31.6001C19.904 31.5041 20.304 31.4241 20.672 31.2961C20.8 31.2481 20.928 31.2001 21.056 31.1681C21.408 31.0401 21.776 30.9281 22.112 30.7841C22.24 30.7361 22.368 30.6721 22.496 30.6081C22.832 30.4641 23.168 30.3041 23.504 30.1281C23.632 30.0641 23.744 29.9841 23.856 29.9201C24.176 29.7281 24.496 29.5521 24.816 29.3441C24.928 29.2801 25.024 29.2001 25.136 29.1201C25.456 28.8961 25.76 28.6721 26.048 28.4321C26.144 28.3521 26.224 28.2721 26.32 28.2081C26.496 28.0641 26.672 27.9201 26.832 27.7761C26.832 27.7601 26.832 27.7601 26.816 27.7441C30 24.8161 32 20.6401 32 16.0001ZM23.904 23.9521C19.568 21.0401 12.4641 21.0401 8.09606 23.9521C7.39206 24.4161 6.81606 24.9601 6.33606 25.5521C3.90406 23.0881 2.40006 19.7121 2.40006 16.0001C2.40006 8.49611 8.49605 2.40012 16 2.40012C23.504 2.40012 29.6 8.49611 29.6 16.0001C29.6 19.7121 28.096 23.0881 25.664 25.5521C25.2 24.9601 24.608 24.4161 23.904 23.9521Z" fill="#F6B17A"/>
<path d="M16 7.88745C12.688 7.88745 10 10.5754 10 13.8875C10 17.1355 12.544 19.7754 15.92 19.8714C15.968 19.8714 16.032 19.8714 16.064 19.8714C16.096 19.8714 16.144 19.8714 16.176 19.8714C16.192 19.8714 16.208 19.8714 16.208 19.8714C19.44 19.7594 21.984 17.1355 22 13.8875C22 10.5754 19.312 7.88745 16 7.88745Z" fill="#F6B17A"/>
</g>
<defs>
<clipPath id="clip0_279_99">
<rect width="32" height="32" fill="white"/>
</clipPath>
</defs>
</svg>

<svg width="32" height="32" fill="none" xmlns="http://www.w3.org/2000/svg">
  <g clip-path="url(#a)" fill="#F6B17A">
    <path d="M32 16c0-8.816-7.184-16-16-16C7.184 0 0 7.184 0 16c0 4.64 2 8.816 5.168 11.744 0 .016 0 .016-.016.032.16.16.352.288.512.432.096.08.176.16.272.224.288.24.608.464.912.688.112.08.208.144.32.224.304.208.624.4.96.576.112.064.24.144.352.208.32.176.656.336 1.008.48.128.064.256.128.384.176.352.144.704.272 1.056.384a3.6 3.6 0 0 0 .384.128c.384.112.768.208 1.152.304.112.032.224.064.352.08.448.096.896.16 1.36.208.064 0 .128.016.192.032.544.048 1.088.08 1.632.08.544 0 1.088-.032 1.616-.08.064 0 .128-.016.192-.032.464-.048.912-.112 1.36-.208.112-.016.224-.064.352-.08.384-.096.784-.176 1.152-.304.128-.048.256-.096.384-.128.352-.128.72-.24 1.056-.384.128-.048.256-.112.384-.176.336-.144.672-.304 1.008-.48.128-.064.24-.144.352-.208.32-.192.64-.368.96-.576.112-.064.208-.144.32-.224.32-.224.624-.448.912-.688.096-.08.176-.16.272-.224.176-.144.352-.288.512-.432 0-.016 0-.016-.016-.032C30 24.816 32 20.64 32 16Zm-8.096 7.952c-4.336-2.912-11.44-2.912-15.808 0a7.726 7.726 0 0 0-1.76 1.6C3.904 23.088 2.4 19.712 2.4 16 2.4 8.496 8.496 2.4 16 2.4S29.6 8.496 29.6 16c0 3.712-1.504 7.088-3.936 9.552a7.404 7.404 0 0 0-1.76-1.6Z"/>
    <path d="M16 7.887c-3.312 0-6 2.688-6 6 0 3.248 2.544 5.888 5.92 5.984H16.208A5.989 5.989 0 0 0 22 13.888c0-3.313-2.688-6-6-6Z"/>
  </g>
  <defs>
    <clipPath id="a">
      <path fill="#fff" d="M0 0h32v32H0z"/>
    </clipPath>
  </defs>
</svg>
